img/app-dark.svg

<svg viewBox="0 0 24 24" height="24" width="24" xmlns="http://www.w3.org/2000/svg" xml:space="preserve" style="fill-rule:evenodd;clip-rule:evenodd;stroke-linejoin:round;stroke-miterlimit:2"><path d="M12 22a9.66 9.66 0 0 1-3.875-.788 10.12 10.12 0 0 1-3.187-2.149 10.138 10.138 0 0 1-2.15-3.188A9.676 9.676 0 0 1 2 12c0-1.383.271-2.683.813-3.9a10.116 10.116 0 0 1 2.2-3.175A10.5 10.5 0 0 1 8.25 2.787 9.978 9.978 0 0 1 12.2 2c1.333 0 2.592.229 3.775.688a9.925 9.925 0 0 1 3.113 1.899 9.114 9.114 0 0 1 2.125 2.875A8.278 8.278 0 0 1 22 11.05c0 1.917-.583 3.388-1.75 4.413C19.083 16.488 17.667 17 16 17h-1.85c-.15 0-.254.042-.312.125a.464.464 0 0 0-.088.275c0 .2.125.488.375.863s.375.804.375 1.287c0 .833-.229 1.45-.687 1.85-.459.4-1.063.6-1.813.6Zm-5.5-9c.433 0 .792-.142 1.075-.425.283-.283.425-.642.425-1.075 0-.433-.142-.792-.425-1.075C7.292 10.142 6.933 10 6.5 10c-.433 0-.792.142-1.075.425-.283.283-.425.642-.425 1.075 0 .433.142.792.425 1.075.283.283.642.425 1.075.425Zm3-4c.433 0 .792-.142 1.075-.425.283-.283.425-.642.425-1.075 0-.433-.142-.792-.425-1.075C10.292 6.142 9.933 6 9.5 6c-.433 0-.792.142-1.075.425C8.142 6.708 8 7.067 8 7.5c0 .433.142.792.425 1.075.283.283.642.425 1.075.425Zm5 0c.433 0 .792-.142 1.075-.425.283-.283.425-.642.425-1.075 0-.433-.142-.792-.425-1.075C15.292 6.142 14.933 6 14.5 6c-.433 0-.792.142-1.075.425-.283.283-.425.642-.425 1.075 0 .433.142.792.425 1.075.283.283.642.425 1.075.425Zm3 4c.433 0 .792-.142 1.075-.425.283-.283.425-.642.425-1.075 0-.433-.142-.792-.425-1.075-.283-.283-.642-.425-1.075-.425-.433 0-.792.142-1.075.425-.283.283-.425.642-.425 1.075 0 .433.142.792.425 1.075.283.283.642.425 1.075.425Z" style="fill-rule:nonzero"/></svg>

<?xml version="1.0" encoding="UTF-8" standalone="no"?>
<!DOCTYPE svg PUBLIC "-//W3C//DTD SVG 1.1//EN" "http://www.w3.org/Graphics/SVG/1.1/DTD/svg11.dtd">
<svg width="100%" height="100%" viewBox="0 0 24 24" version="1.1" xmlns="http://www.w3.org/2000/svg" xmlns:xlink="http://www.w3.org/1999/xlink" xml:space="preserve" xmlns:serif="http://www.serif.com/" style="fill-rule:evenodd;clip-rule:evenodd;stroke-linejoin:round;stroke-miterlimit:2;">
    <path d="M12,22C10.633,22 9.342,21.738 8.125,21.212C6.908,20.688 5.846,19.971 4.938,19.063C4.029,18.154 3.313,17.092 2.788,15.875C2.263,14.658 2,13.367 2,12C2,10.617 2.271,9.317 2.813,8.1C3.354,6.883 4.088,5.825 5.013,4.925C5.938,4.025 7.017,3.313 8.25,2.787C9.483,2.262 10.8,2 12.2,2C13.533,2 14.792,2.229 15.975,2.688C17.158,3.146 18.196,3.779 19.088,4.587C19.979,5.396 20.688,6.354 21.213,7.462C21.738,8.571 22,9.767 22,11.05C22,12.967 21.417,14.438 20.25,15.463C19.083,16.488 17.667,17 16,17L14.15,17C14,17 13.896,17.042 13.838,17.125C13.779,17.208 13.75,17.3 13.75,17.4C13.75,17.6 13.875,17.888 14.125,18.263C14.375,18.638 14.5,19.067 14.5,19.55C14.5,20.383 14.271,21 13.813,21.4C13.354,21.8 12.75,22 12,22ZM6.5,13C6.933,13 7.292,12.858 7.575,12.575C7.858,12.292 8,11.933 8,11.5C8,11.067 7.858,10.708 7.575,10.425C7.292,10.142 6.933,10 6.5,10C6.067,10 5.708,10.142 5.425,10.425C5.142,10.708 5,11.067 5,11.5C5,11.933 5.142,12.292 5.425,12.575C5.708,12.858 6.067,13 6.5,13ZM9.5,9C9.933,9 10.292,8.858 10.575,8.575C10.858,8.292 11,7.933 11,7.5C11,7.067 10.858,6.708 10.575,6.425C10.292,6.142 9.933,6 9.5,6C9.067,6 8.708,6.142 8.425,6.425C8.142,6.708 8,7.067 8,7.5C8,7.933 8.142,8.292 8.425,8.575C8.708,8.858 9.067,9 9.5,9ZM14.5,9C14.933,9 15.292,8.858 15.575,8.575C15.858,8.292 16,7.933 16,7.5C16,7.067 15.858,6.708 15.575,6.425C15.292,6.142 14.933,6 14.5,6C14.067,6 13.708,6.142 13.425,6.425C13.142,6.708 13,7.067 13,7.5C13,7.933 13.142,8.292 13.425,8.575C13.708,8.858 14.067,9 14.5,9ZM17.5,13C17.933,13 18.292,12.858 18.575,12.575C18.858,12.292 19,11.933 19,11.5C19,11.067 18.858,10.708 18.575,10.425C18.292,10.142 17.933,10 17.5,10C17.067,10 16.708,10.142 16.425,10.425C16.142,10.708 16,11.067 16,11.5C16,11.933 16.142,12.292 16.425,12.575C16.708,12.858 17.067,13 17.5,13Z" style="fill-rule:nonzero;"/>
</svg>
